round/svg/settings_voice.svg

<svg xmlns="http://www.w3.org/2000/svg" width="24" height="24"><path fill="none" d="M0 0h24v24H0V0z"/><path d="M7 24h2v-2H7v2zm5-11c1.66 0 2.99-1.34 2.99-3L15 4c0-1.66-1.34-3-3-3S9 2.34 9 4v6c0 1.66 1.34 3 3 3zm-1 11h2v-2h-2v2zm4 0h2v-2h-2v2zm3.08-14c-.42 0-.77.3-.83.71-.37 2.61-2.72 4.39-5.25 4.39s-4.88-1.77-5.25-4.39a.839.839 0 0 0-.83-.71c-.52 0-.92.46-.85.97.46 2.96 2.96 5.3 5.93 5.75V19c0 .55.45 1 1 1s1-.45 1-1v-2.28c2.96-.44 5.47-2.79 5.93-5.75a.857.857 0 0 0-.85-.97z" fill="currentColor"/></svg>

<?xml version="1.0" encoding="utf-8"?>
<!-- Generator: Adobe Illustrator 19.1.0, SVG Export Plug-In . SVG Version: 6.00 Build 0)  -->
<svg version="1.1" xmlns="http://www.w3.org/2000/svg" xmlns:xlink="http://www.w3.org/1999/xlink" x="0px" y="0px" width="24px"
	 height="24px" viewBox="0 0 24 24" enable-background="new 0 0 24 24" xml:space="preserve">
<g id="Header_x2F_BG" display="none">
	<rect x="-226" y="-402" display="inline" fill="#F1F1F2" width="520" height="520"/>
</g>
<g id="Bounding_Boxes">
	<g id="ui_x5F_spec_x5F_header_copy_3" display="none">
	</g>
	<path fill="none" d="M0,0h24v24H0V0z"/>
</g>
<g id="Rounded" fill="currentColor">
	<g id="ui_x5F_spec_x5F_header_copy_5" display="none">
	</g>
	<path d="M7,24h2v-2H7V24z M12,13c1.66,0,2.99-1.34,2.99-3L15,4c0-1.66-1.34-3-3-3S9,2.34,9,4v6C9,11.66,10.34,13,12,13z M11,24h2
		v-2h-2V24z M15,24h2v-2h-2V24z M18.08,10L18.08,10c-0.42,0-0.77,0.3-0.83,0.71c-0.37,2.61-2.72,4.39-5.25,4.39
		s-4.88-1.77-5.25-4.39C6.69,10.3,6.33,10,5.92,10h0C5.4,10,5,10.46,5.07,10.97c0.46,2.96,2.96,5.3,5.93,5.75V19c0,0.55,0.45,1,1,1
		h0c0.55,0,1-0.45,1-1v-2.28c2.96-0.44,5.47-2.79,5.93-5.75C19,10.46,18.6,10,18.08,10z"/>
</g>
<g id="Sharp" display="none">
	<g id="ui_x5F_spec_x5F_header_copy_4">
	</g>
	<path display="inline" d="M7,24h2v-2H7V24z M12,13c1.66,0,2.99-1.34,2.99-3L15,4c0-1.66-1.34-3-3-3S9,2.34,9,4v6
		C9,11.66,10.34,13,12,13z M11,24h2v-2h-2V24z M15,24h2v-2h-2V24z M19,10h-1.7c0,3-2.54,5.1-5.3,5.1S6.7,13,6.7,10H5
		c0,3.41,2.72,6.23,6,6.72V20h2v-3.28C16.28,16.23,19,13.41,19,10z"/>
</g>
<g id="Outline" display="none">
	<g id="ui_x5F_spec_x5F_header">
	</g>
	<g display="inline">
		<rect x="7" y="22" width="2" height="2"/>
		<path d="M12,13c1.66,0,3-1.34,3-3V4c0-1.66-1.34-3-3-3c-1.66,0-3,1.34-3,3v6C9,11.66,10.34,13,12,13z M11,4c0-0.55,0.45-1,1-1
			s1,0.45,1,1v6c0,0.56-0.44,1-1,1c-0.55,0-1-0.45-1-1V4z"/>
		<rect x="11" y="22" width="2" height="2"/>
		<rect x="15" y="22" width="2" height="2"/>
		<path d="M19,10h-1.7c0,3-2.54,5.1-5.3,5.1S6.7,13,6.7,10H5c0,3.41,2.72,6.23,6,6.72V20h2v-3.28C16.28,16.23,19,13.41,19,10z"/>
	</g>
</g>
<g id="Duotone" display="none">
	<g id="ui_x5F_spec_x5F_header_copy_2">
	</g>
	<g display="inline">
		<path opacity="0.3" d="M12,11c0.56,0,0.99-0.44,0.99-1L13,4c0-0.55-0.45-1-1-1s-1,0.45-1,1v6C11,10.55,11.45,11,12,11z"/>
		<g>
			<rect x="7" y="22" width="2" height="2"/>
			<path d="M12,13c1.66,0,2.99-1.34,2.99-3L15,4c0-1.66-1.34-3-3-3S9,2.34,9,4v6C9,11.66,10.34,13,12,13z M11,4c0-0.55,0.45-1,1-1
				s1,0.45,1,1v6c0,0.56-0.44,1-1,1c-0.55,0-1-0.45-1-1V4z"/>
			<rect x="11" y="22" width="2" height="2"/>
			<rect x="15" y="22" width="2" height="2"/>
			<path d="M19,10h-1.7c0,3-2.54,5.1-5.3,5.1S6.7,13,6.7,10H5c0,3.41,2.72,6.23,6,6.72V20h2v-3.28C16.28,16.23,19,13.41,19,10z"/>
		</g>
	</g>
</g>
<g id="Material" display="none">
	<g id="ui_x5F_spec_x5F_header_copy">
	</g>
	<path display="inline" d="M7,24h2v-2H7V24z M12,13c1.66,0,2.99-1.34,2.99-3L15,4c0-1.66-1.34-3-3-3S9,2.34,9,4v6
		C9,11.66,10.34,13,12,13z M11,24h2v-2h-2V24z M15,24h2v-2h-2V24z M19,10h-1.7c0,3-2.54,5.1-5.3,5.1S6.7,13,6.7,10H5
		c0,3.41,2.72,6.23,6,6.72V20h2v-3.28C16.28,16.23,19,13.41,19,10z"/>
</g>
</svg>
